;FLAVOR:Marlin
;TIME:15833
;Filament used: 9.90595m
;Layer height: 0.2
;MINX:64.7
;MINY:64.7
;MINZ:0.2
;MAXX:170.3
;MAXY:170.3
;MAXZ:23
;Generated with Cura_SteamEngine 5.3.1
M140 S50
M105
M190 S50
M104 S200
M105
M109 S200
M82 ;absolute extrusion mode
; Ender 3 Custom Start G-code
G92 E0 ; Reset Extruder
G28 ; Home all axes
G1 Z2.0 F3000 ; Move Z Axis up little to prevent scratching of Heat Bed
G1 X0.1 Y20 Z0.3 F5000.0 ; Move to start position
G1 X0.1 Y200.0 Z0.3 F1500.0 E15 ; Draw the first line
G1 X0.4 Y200.0 Z0.3 F5000.0 ; Move to side a little
G1 X0.4 Y20 Z0.3 F1500.0 E30 ; Draw the second line
G92 E0 ; Reset Extruder
G1 Z2.0 F3000 ; Move Z Axis up little to prevent scratching of Heat Bed
G1 X5 Y20 Z0.3 F5000.0 ; Move over to prevent blob squish
G92 E0
G92 E0
G1 F2700 E-5
;LAYER_COUNT:115
;LAYER:0
M107
G0 F6000 X72.332 Y72.423 Z0.2
;TYPE:SKIRT
G1 F2700 E0
G1 F1200 X73.966 Y71.046 E0.07107
G1 X76.312 Y69.623 E0.16233
G1 X78.23 Y68.83 E0.23136
G1 X80.578 Y68.338 E0.31115
G1 X81.439 Y68.259 E0.33991
G1 X81.715 Y67.728 E0.35981
G1 X83.294 Y66.25 E0.43175
G1 X85.166 Y65.138 E0.50417
G1 X87.353 Y64.7 E0.57835
G1 X147.853 Y64.7 E2.59059
G1 X149.749 Y65.166 E2.65553
G1 X151.776 Y66.219 E2.7315
G1 X153.255 Y67.799 E2.80348
G1 X153.538 Y68.274 E2.82187
G1 X154.855 Y68.405 E2.86589
G1 X156.869 Y68.851 E2.9345
G1 X158.609 Y69.582 E2.99728
G1 X161.25 Y71.205 E3.10038
G1 X162.588 Y72.342 E3.15878
G1 X164.296 Y74.437 E3.24868
G1 X165.233 Y76.015 E3.30972
G1 X166.143 Y78.104 E3.38551
G1 X166.669 Y80.625 E3.47116
G1 X166.743 Y81.44 E3.49838
G1 X167.273 Y81.716 E3.51825
G1 X168.75 Y83.294 E3.59014
G1 X169.862 Y85.166 E3.66256
G1 X170.3 Y87.353 E3.73675
G1 X170.3 Y147.853 E5.74898
G1 X169.834 Y149.749 E5.81392
G1 X168.781 Y151.776 E5.88989
G1 X167.201 Y153.255 E5.96188
G1 X166.726 Y153.538 E5.98027
G1 X166.595 Y154.851 E6.02415
G1 X166.147 Y156.884 E6.09339
G1 X165.235 Y158.975 E6.16927
G1 X164.063 Y160.945 E6.24551
G1 X162.248 Y162.942 E6.33526
G1 X160.944 Y164.026 E6.39166
G1 X158.785 Y165.334 E6.47562
G1 X157.12 Y166.049 E6.53589
G1 X154.658 Y166.619 E6.61994
G1 X153.569 Y166.729 E6.65635
G1 X153.285 Y167.272 E6.67673
G1 X151.706 Y168.75 E6.74866
G1 X149.834 Y169.862 E6.82108
G1 X147.647 Y170.3 E6.89527
G1 X87.147 Y170.3 E8.90751
G1 X85.251 Y169.834 E8.97244
G1 X83.224 Y168.781 E9.04842
G1 X81.747 Y167.203 E9.12031
G1 X81.465 Y166.729 E9.13865
G1 X80.157 Y166.592 E9.18239
G1 X78.124 Y166.119 E9.25182
G1 X76.208 Y165.326 E9.32078
G1 X74.05 Y164.078 E9.4037
G1 X72.612 Y162.818 E9.46729
G1 X70.78 Y160.669 E9.56121
G1 X69.706 Y158.935 E9.62905
G1 X68.952 Y157.036 E9.69701
G1 X68.309 Y154.214 E9.79328
G1 X68.255 Y153.56 E9.8151
G1 X67.728 Y153.285 E9.83487
G1 X66.25 Y151.706 E9.90681
G1 X65.138 Y149.834 E9.97923
G1 X64.7 Y147.647 E10.05341
G1 X64.7 Y87.147 E12.06565
G1 X65.166 Y85.251 E12.13059
G1 X66.219 Y83.224 E12.20656
G1 X67.799 Y81.745 E12.27854
G1 X68.274 Y81.462 E12.29693
G1 X68.405 Y80.144 E12.34099
G1 X68.85 Y78.134 E12.40946
G1 X69.582 Y76.391 E12.47233
G1 X71.205 Y73.75 E12.57544
G1 X72.332 Y72.423 E12.63334
G0 F6000 X72.615 Y72.708
G1 F1200 X74.224 Y71.352 E12.70333
G1 X76.465 Y69.993 E12.7905
G1 X78.348 Y69.214 E12.85827
G1 X80.66 Y68.73 E12.93684
G1 X81.693 Y68.637 E12.97133
G1 X82.039 Y67.972 E12.99627
G1 X83.535 Y66.572 E13.06441
G1 X85.312 Y65.516 E13.13317
G1 X87.391 Y65.1 E13.20368
G1 X147.807 Y65.1 E15.21313
G1 X149.606 Y65.542 E15.27474
G1 X151.531 Y66.542 E15.34689
G1 X152.931 Y68.038 E15.41504
G1 X153.297 Y68.652 E15.43881
G1 X154.768 Y68.796 E15.48797
G1 X156.749 Y69.235 E15.55546
G1 X158.454 Y69.951 E15.61697
G1 X160.991 Y71.51 E15.71601
G1 X162.301 Y72.623 E15.77318
G1 X163.986 Y74.69 E15.86188
G1 X164.866 Y76.175 E15.91929
G1 X165.759 Y78.226 E15.99369
G1 X166.277 Y80.707 E16.07799
G1 X166.364 Y81.694 E16.11094
G1 X167.028 Y82.039 E16.13583
G1 X168.428 Y83.535 E16.20398
G1 X169.484 Y85.312 E16.27273
G1 X169.9 Y87.391 E16.34325
G1 X169.9 Y147.807 E18.35269
G1 X169.458 Y149.606 E18.41431
G1 X168.458 Y151.531 E18.48646
G1 X166.962 Y152.931 E18.5546
G1 X166.348 Y153.297 E18.57838
G1 X166.204 Y154.765 E18.62744
G1 X165.764 Y156.762 E18.69545
G1 X164.891 Y158.77 E18.76828
G1 X163.738 Y160.708 E18.84328
G1 X161.992 Y162.634 E18.92974
G1 X160.688 Y163.718 E18.98614
G1 X158.627 Y164.966 E19.06628
G1 X156.994 Y165.667 E19.12539
G1 X154.568 Y166.229 E19.20821
G1 X153.314 Y166.352 E19.25012
G1 X152.961 Y167.028 E19.27549
G1 X151.465 Y168.428 E19.34363
G1 X149.688 Y169.484 E19.41239
G1 X147.609 Y169.9 E19.4829
G1 X87.193 Y169.9 E21.49235
G1 X85.394 Y169.458 E21.55396
G1 X83.469 Y168.458 E21.62611
G1 X82.071 Y166.964 E21.69417
G1 X81.706 Y166.351 E21.71789
G1 X80.248 Y166.202 E21.76664
G1 X78.246 Y165.736 E21.83501
G1 X76.361 Y164.956 E21.90286
G1 X74.285 Y163.752 E21.98268
G1 X72.876 Y162.517 E22.045
G1 X71.12 Y160.458 E22.135
G1 X70.065 Y158.755 E22.20163
G1 X69.324 Y156.888 E22.26844
G1 X68.708 Y154.181 E22.36078
G1 X68.636 Y153.307 E22.38994
G1 X67.972 Y152.961 E22.41485
G1 X66.572 Y151.465 E22.48299
G1 X65.516 Y149.688 E22.55175
G1 X65.1 Y147.609 E22.62227
G1 X65.1 Y87.193 E24.63171
G1 X65.542 Y85.394 E24.69332
G1 X66.542 Y83.469 E24.76547
G1 X68.038 Y82.069 E24.83362
G1 X68.652 Y81.703 E24.85739
G1 X68.796 Y80.231 E24.90659
G1 X69.234 Y78.254 E24.97394
G1 X69.951 Y76.546 E25.03555
G1 X71.51 Y74.009 E25.13459
G1 X72.615 Y72.708 E25.19136
G0 F6000 X72.898 Y72.993
G1 F1200 X74.482 Y71.658 E25.26026
G1 X76.618 Y70.363 E25.34334
G1 X78.466 Y69.598 E25.40986
G1 X80.742 Y69.122 E25.4872
G1 X81.947 Y69.016 E25.52743
G1 X82.363 Y68.216 E25.55743
G1 X83.776 Y66.894 E25.62178
G1 X85.458 Y65.895 E25.68685
G1 X87.43 Y65.5 E25.75374
G1 X147.76 Y65.5 E27.76033
G1 X149.464 Y65.919 E27.81869
G1 X151.286 Y66.865 E27.88697
G1 X152.607 Y68.277 E27.95128
G1 X153.056 Y69.031 E27.98047
G1 X154.682 Y69.187 E28.0348
G1 X156.628 Y69.618 E28.10109
G1 X158.299 Y70.32 E28.16138
G1 X160.732 Y71.815 E28.25635
G1 X162.014 Y72.904 E28.3123
G1 X163.642 Y74.895 E28.39784
G1 X164.499 Y76.335 E28.45358
G1 X165.375 Y78.348 E28.52659
G1 X165.885 Y80.789 E28.60953
G1 X165.984 Y81.947 E28.64819
G1 X166.784 Y82.363 E28.67818
G1 X168.106 Y83.776 E28.74254
G1 X169.105 Y85.458 E28.80761
G1 X169.5 Y87.43 E28.8745
G1 X169.5 Y147.76 E30.88108
G1 X169.081 Y149.464 E30.93945
G1 X168.135 Y151.286 E31.00773
G1 X166.723 Y152.607 E31.07204
G1 X165.969 Y153.056 E31.10123
G1 X165.813 Y154.679 E31.15546
G1 X165.381 Y156.64 E31.22224
G1 X164.547 Y158.565 E31.29202
G1 X163.413 Y160.471 E31.36579
G1 X161.736 Y162.326 E31.44896
G1 X160.432 Y163.41 E31.50536
G1 X158.469 Y164.598 E31.58167
G1 X156.868 Y165.285 E31.63962
G1 X154.478 Y165.839 E31.72122
G1 X153.059 Y165.975 E31.76863
G1 X152.637 Y166.784 E31.79898
G1 X151.224 Y168.106 E31.86334
G1 X149.542 Y169.105 E31.9284
G1 X147.57 Y169.5 E31.9953
G1 X87.24 Y169.5 E34.00188
G1 X85.536 Y169.081 E34.06024
G1 X83.714 Y168.135 E34.12852
G1 X82.393 Y166.723 E34.19284
G1 X81.947 Y165.973 E34.22186
G1 X80.339 Y165.812 E34.27561
G1 X78.337 Y165.346 E34.34397
G1 X76.562 Y164.61 E34.40789
G1 X74.52 Y163.426 E34.48639
G1 X73.14 Y162.216 E34.54744
G1 X71.46 Y160.247 E34.63353
G1 X70.424 Y158.575 E34.69895
G1 X69.696 Y156.74 E34.76461
G1 X69.107 Y154.148 E34.85301
G1 X69.017 Y153.054 E34.88952
G1 X68.216 Y152.637 E34.91956
G1 X66.894 Y151.224 E34.98392
G1 X65.895 Y149.542 E35.04898
G1 X65.5 Y147.57 E35.11588
G1 X65.5 Y87.24 E37.12246
G1 X65.919 Y85.536 E37.18082
G1 X66.865 Y83.714 E37.24911
G1 X68.277 Y82.393 E37.31342
G1 X69.031 Y81.944 E37.3426
G1 X69.187 Y80.317 E37.39697
G1 X69.617 Y78.375 E37.46312
G1 X70.32 Y76.701 E37.52351
G1 X71.815 Y74.268 E37.61849
G1 X72.898 Y72.993 E37.67413
G0 F6000 X73.181 Y73.278
G1 F1200 X74.74 Y71.964 E37.74194
G1 X76.771 Y70.733 E37.82093
G1 X78.584 Y69.982 E37.8862
G1 X80.824 Y69.514 E37.96231
G1 X82.2 Y69.396 E38.00825
G1 X82.687 Y68.46 E38.04334
G1 X84.017 Y67.216 E38.10391
G1 X85.604 Y66.273 E38.16531
G1 X87.468 Y65.9 E38.22854
G1 X147.714 Y65.9 E40.23233
G1 X149.321 Y66.295 E40.28737
G1 X151.041 Y67.188 E40.35182
G1 X152.283 Y68.516 E40.4123
G1 X152.815 Y69.41 E40.4469
G1 X154.596 Y69.578 E40.5064
G1 X156.507 Y70.001 E40.5715
G1 X158.144 Y70.689 E40.63056
G1 X160.473 Y72.12 E40.72148
G1 X161.727 Y73.185 E40.7762
G1 X163.332 Y75.148 E40.86053
G1 X164.132 Y76.495 E40.91264
G1 X164.993 Y78.474 E40.98442
G1 X165.486 Y80.823 E41.06425
G1 X165.604 Y82.2 E41.11022
G1 X166.54 Y82.687 E41.14531
G1 X167.784 Y84.017 E41.20588
G1 X168.727 Y85.604 E41.26728
G1 X169.1 Y87.468 E41.33051
G1 X169.1 Y147.714 E43.3343
G1 X168.705 Y149.321 E43.38934
G1 X167.812 Y151.041 E43.45379
G1 X166.484 Y152.283 E43.51427
G1 X165.59 Y152.815 E43.54887
G1 X165.422 Y154.593 E43.60827
G1 X164.997 Y156.52 E43.6739
G1 X164.203 Y158.36 E43.74056
G1 X163.088 Y160.234 E43.81309
G1 X161.48 Y162.018 E43.89297
G1 X160.176 Y163.102 E43.94937
G1 X158.311 Y164.23 E44.02186
G1 X156.742 Y164.903 E44.07864
G1 X154.388 Y165.449 E44.15902
G1 X152.804 Y165.597 E44.21193
G1 X152.313 Y166.54 E44.24729
G1 X150.983 Y167.784 E44.30786
G1 X149.396 Y168.727 E44.36926
G1 X147.532 Y169.1 E44.43249
G1 X87.286 Y169.1 E46.43628
G1 X85.679 Y168.705 E46.49132
G1 X83.959 Y167.812 E46.55578
G1 X82.717 Y166.484 E46.61625
G1 X82.188 Y165.595 E46.65066
G1 X80.43 Y165.422 E46.70941
G1 X78.459 Y164.963 E46.77672
G1 X76.715 Y164.24 E46.83952
G1 X74.755 Y163.1 E46.91493
G1 X73.404 Y161.915 E46.9747
G1 X71.8 Y160.036 E47.05687
G1 X70.782 Y158.394 E47.12113
G1 X70.068 Y156.593 E47.18556
G1 X69.506 Y154.115 E47.27008
G1 X69.398 Y152.801 E47.31393
G1 X68.46 Y152.313 E47.3491
G1 X67.216 Y150.983 E47.40967
G1 X66.273 Y149.396 E47.47106
G1 X65.9 Y147.532 E47.53429
G1 X65.9 Y87.286 E49.53808
G1 X66.295 Y85.679 E49.59312
G1 X67.188 Y83.959 E49.65758
G1 X68.516 Y82.717 E49.71806
G1 X69.41 Y82.185 E49.75266
G1 X69.578 Y80.404 E49.81216
G1 X70.001 Y78.495 E49.87719
G1 X70.689 Y76.856 E49.93631
G1 X72.12 Y74.527 E50.02723
G1 X73.181 Y73.278 E50.08173
G0 F6000 X73.464 Y73.563
G1 F1200 X72.425 Y74.786 E50.13511
G1 X71.058 Y77.011 E50.22196
G1 X70.384 Y78.616 E50.27986
G1 X69.969 Y80.49 E50.3437
G1 X69.81 Y82.187 E50.40039
G1 X69.81 Y82.413 E50.40791
G1 X68.757 Y83.039 E50.44865
G1 X67.511 Y84.204 E50.50539
G1 X66.671 Y85.822 E50.56602
G1 X66.3 Y87.332 E50.61774
G1 X66.3 Y147.494 E52.61874
G1 X66.651 Y149.25 E52.6783
G1 X67.538 Y150.742 E52.73603
G1 X68.704 Y151.989 E52.79281
G1 X69.811 Y152.565 E52.83431
G1 X69.815 Y152.99 E52.84845
G1 X69.905 Y154.082 E52.88489
G1 X70.458 Y156.504 E52.96752
G1 X71.139 Y158.21 E53.02862
G1 X72.14 Y159.825 E53.09181
G1 X73.668 Y161.614 E53.17007
G1 X74.992 Y162.775 E53.22864
G1 X76.868 Y163.87 E53.30088
G1 X78.581 Y164.58 E53.36256
G1 X80.521 Y165.032 E53.42881
G1 X82.128 Y165.187 E53.48251
G1 X82.413 Y165.19 E53.49199
G1 X83.041 Y166.245 E53.53282
G1 X84.204 Y167.489 E53.58946
G1 X85.822 Y168.329 E53.6501
G1 X87.332 Y168.7 E53.70181
G1 X147.494 Y168.7 E55.70281
G1 X149.25 Y168.349 E55.76237
G1 X150.742 Y167.462 E55.8201
G1 X151.989 Y166.296 E55.87688
G1 X152.565 Y165.189 E55.91839
G1 X152.912 Y165.187 E55.92993
G1 X154.298 Y165.059 E55.97623
G1 X156.616 Y164.521 E56.05537
G1 X158.153 Y163.862 E56.11099
G1 X159.92 Y162.794 E56.17966
G1 X161.224 Y161.71 E56.23606
G1 X162.761 Y160 E56.31254
G1 X163.859 Y158.155 E56.38395
G1 X164.614 Y156.396 E56.44761
G1 X165.031 Y154.507 E56.51195
G1 X165.19 Y152.813 E56.56854
G1 X165.19 Y152.587 E56.57606
G1 X166.243 Y151.961 E56.61681
G1 X167.489 Y150.796 E56.67354
G1 X168.329 Y149.178 E56.73418
G1 X168.7 Y147.668 E56.78589
G1 X168.7 Y87.506 E58.78689
G1 X168.349 Y85.75 E58.84645
G1 X167.462 Y84.258 E58.90418
G1 X166.296 Y83.011 E58.96096
G1 X165.189 Y82.435 E59.00247
G1 X165.185 Y82.003 E59.01684
G1 X165.087 Y80.857 E59.05509
G1 X164.611 Y78.599 E59.13184
G1 X163.765 Y76.655 E59.20236
G1 X163.022 Y75.401 E59.25084
G1 X161.44 Y73.466 E59.33397
G1 X160.214 Y72.425 E59.38746
G1 X157.989 Y71.058 E59.47432
G1 X156.387 Y70.385 E59.53211
G1 X154.509 Y69.969 E59.59609
G1 X152.813 Y69.81 E59.65274
G1 X152.587 Y69.81 E59.66026
G1 X151.961 Y68.757 E59.701
G1 X150.796 Y67.511 E59.75774
G1 X149.178 Y66.671 E59.81837
G1 X147.668 Y66.3 E59.87009
G1 X87.506 Y66.3 E61.87109
G1 X85.75 Y66.651 E61.93065
G1 X84.258 Y67.538 E61.98838
G1 X83.011 Y68.704 E62.04516
G1 X82.435 Y69.811 E62.08667
G1 X82.005 Y69.815 E62.10097
G1 X80.858 Y69.913 E62.13926
G1 X78.707 Y70.364 E62.21235
G1 X76.924 Y71.103 E62.27655
G1 X74.998 Y72.27 E62.35145
G1 X73.464 Y73.563 E62.41818
G0 F6000 X73.747 Y73.848
G1 F1200 X75.256 Y72.576 E62.48382
G1 X77.077 Y71.473 E62.55463
G1 X78.829 Y70.747 E62.61771
G1 X80.892 Y70.312 E62.68783
G1 X82.039 Y70.214 E62.72612
G1 X82.679 Y70.209 E62.74741
G1 X83.334 Y68.949 E62.79464
G1 X84.499 Y67.86 E62.84768
G1 X85.896 Y67.029 E62.90174
G1 X87.544 Y66.7 E62.95764
G1 X147.621 Y66.7 E64.95581
G1 X149.036 Y67.048 E65.00427
G1 X150.551 Y67.834 E65.06104
G1 X151.637 Y68.996 E65.11394
G1 X152.359 Y70.209 E65.16089
G1 X152.812 Y70.21 E65.17596
G1 X154.423 Y70.36 E65.22977
G1 X156.266 Y70.768 E65.29255
G1 X157.834 Y71.427 E65.34912
G1 X159.955 Y72.73 E65.43192
G1 X161.154 Y73.748 E65.48423
G1 X162.678 Y75.606 E65.56416
G1 X163.398 Y76.815 E65.61096
G1 X164.229 Y78.724 E65.68021
G1 X164.688 Y80.891 E65.75388
G1 X164.786 Y82.037 E65.79214
G1 X164.791 Y82.679 E65.81349
G1 X166.051 Y83.334 E65.86072
G1 X167.14 Y84.499 E65.91376
G1 X167.971 Y85.896 E65.96783
G1 X168.3 Y87.544 E66.02372
G1 X168.3 Y147.621 E68.02189
G1 X167.952 Y149.036 E68.07036
G1 X167.166 Y150.551 E68.12712
G1 X166.004 Y151.637 E68.18002
G1 X164.791 Y152.359 E68.22697
G1 X164.79 Y152.812 E68.24204
G1 X164.64 Y154.421 E68.29579
G1 X164.231 Y156.272 E68.35884
G1 X163.491 Y157.997 E68.42127
G1 X162.439 Y159.76 E68.48955
G1 X160.968 Y161.402 E68.56287
G1 X159.664 Y162.486 E68.61927
G1 X157.995 Y163.494 E68.68412
G1 X156.49 Y164.139 E68.73858
G1 X154.208 Y164.669 E68.8165
G1 X152.909 Y164.787 E68.85989
G1 X152.321 Y164.791 E68.87944
G1 X151.666 Y166.051 E68.92668
G1 X150.501 Y167.14 E68.97972
G1 X149.104 Y167.971 E69.03378
G1 X147.456 Y168.3 E69.08967
G1 X87.379 Y168.3 E71.08784
G1 X85.964 Y167.952 E71.13631
G1 X84.449 Y167.166 E71.19308
G1 X83.363 Y166.004 E71.24598
G1 X82.641 Y164.79 E71.29295
G1 X82.166 Y164.789 E71.30875
G1 X80.612 Y164.642 E71.36067
G1 X78.703 Y164.197 E71.42587
G1 X77.021 Y163.5 E71.48642
G1 X75.229 Y162.451 E71.55549
G1 X73.932 Y161.313 E71.61288
G1 X72.48 Y159.614 E71.68721
G1 X71.498 Y158.03 E71.7492
G1 X70.83 Y156.356 E71.80914
G1 X70.304 Y154.049 E71.88784
G1 X70.214 Y152.957 E71.92429
G1 X70.209 Y152.321 E71.94544
G1 X68.949 Y151.666 E71.99267
G1 X67.86 Y150.501 E72.04571
G1 X67.029 Y149.104 E72.09978
G1 X66.7 Y147.456 E72.15567
G1 X66.7 Y87.379 E74.15384
G1 X67.048 Y85.964 E74.20231
G1 X67.834 Y84.449 E74.25907
G1 X68.996 Y83.363 E74.31197
G1 X70.209 Y82.641 E74.35892
G1 X70.21 Y82.188 E74.37399
G1 X70.36 Y80.577 E74.4278
G1 X70.768 Y78.736 E74.49052
G1 X71.427 Y77.166 E74.54715
G1 X72.73 Y75.045 E74.62995
G1 X73.747 Y73.848 E74.68219
G0 F6000 X74.03 Y74.133
G1 F1200 X73.035 Y75.304 E74.7333
G1 X71.796 Y77.321 E74.81203
G1 X71.151 Y78.857 E74.86744
G1 X70.751 Y80.663 E74.92896
G1 X70.61 Y82.189 E74.97993
G1 X70.609 Y82.912 E75.00398
G1 X70.435 Y82.973 E75.01011
G1 X69.235 Y83.687 E75.05656
G1 X68.157 Y84.694 E75.10562
G1 X67.424 Y86.107 E75.15856
G1 X67.1 Y87.425 E75.20371
G1 X67.1 Y147.418 E77.19908
G1 X67.407 Y148.956 E77.25124
G1 X68.184 Y150.262 E77.30179
G1 X69.194 Y151.343 E77.35099
G1 X70.608 Y152.077 E77.40398
G1 X70.613 Y152.924 E77.43215
G1 X70.703 Y154.016 E77.4686
G1 X71.202 Y156.208 E77.54337
G1 X71.857 Y157.85 E77.60217
G1 X72.82 Y159.403 E77.66294
G1 X74.196 Y161.012 E77.73336
G1 X75.465 Y162.125 E77.7895
G1 X77.174 Y163.13 E77.85544
G1 X78.825 Y163.814 E77.91488
G1 X80.703 Y164.252 E77.97902
G1 X82.167 Y164.389 E78.02793
G1 X82.912 Y164.391 E78.05271
G1 X82.973 Y164.565 E78.05884
G1 X83.687 Y165.765 E78.10528
G1 X84.694 Y166.843 E78.15434
G1 X86.107 Y167.576 E78.20729
G1 X87.425 Y167.9 E78.25243
G1 X147.418 Y167.9 E80.24781
G1 X148.956 Y167.593 E80.29997
G1 X150.262 Y166.816 E80.35051
