;FLAVOR:Marlin
;TIME:15592
;Filament used: 10.6917m
;Layer height: 0.2
;MINX:57.222
;MINY:57.222
;MINZ:0.2
;MAXX:177.778
;MAXY:177.778
;MAXZ:18.4
;Generated with Cura_SteamEngine 5.3.1
M140 S50
M105
M190 S50
M104 S200
M105
M109 S200
M82 ;absolute extrusion mode
; Ender 3 Custom Start G-code
G92 E0 ; Reset Extruder
G28 ; Home all axes
G1 Z2.0 F3000 ; Move Z Axis up little to prevent scratching of Heat Bed
G1 X0.1 Y20 Z0.3 F5000.0 ; Move to start position
G1 X0.1 Y200.0 Z0.3 F1500.0 E15 ; Draw the first line
G1 X0.4 Y200.0 Z0.3 F5000.0 ; Move to side a little
G1 X0.4 Y20 Z0.3 F1500.0 E30 ; Draw the second line
G92 E0 ; Reset Extruder
G1 Z2.0 F3000 ; Move Z Axis up little to prevent scratching of Heat Bed
G1 X5 Y20 Z0.3 F5000.0 ; Move over to prevent blob squish
G92 E0
G92 E0
G1 F2700 E-5
;LAYER_COUNT:93
;LAYER:0
M107
G0 F6000 X70.11 Y69.735 Z0.2
;TYPE:SKIRT
G1 F2700 E0
G1 F1200 X71.717 Y68.345 E0.07067
G1 X73.345 Y67.246 E0.136
G1 X75.748 Y66.044 E0.22537
G1 X77.942 Y65.305 E0.30237
G1 X80.183 Y64.865 E0.37833
G1 X82.487 Y64.7 E0.45515
G1 X107.22 Y64.7 E1.27778
G1 X107.891 Y62.94 E1.34042
G1 X109.352 Y60.814 E1.42622
G1 X111.307 Y59.091 E1.51289
G1 X113.599 Y57.868 E1.5993
G1 X116.22 Y57.222 E1.68908
G1 X118.78 Y57.222 E1.77423
G1 X121.403 Y57.869 E1.86409
G1 X123.692 Y59.091 E1.95039
G1 X125.646 Y60.813 E2.03701
G1 X127.107 Y62.939 E2.12281
G1 X127.778 Y64.7 E2.18549
G1 X153.033 Y64.719 E3.02548
G1 X154.337 Y64.806 E3.06894
G1 X157.583 Y65.447 E3.17899
G1 X158.919 Y65.903 E3.22594
G1 X161.837 Y67.351 E3.33429
G1 X163.052 Y68.17 E3.38302
G1 X165.265 Y70.11 E3.48091
G1 X166.655 Y71.717 E3.55158
G1 X167.754 Y73.345 E3.61691
G1 X168.955 Y75.745 E3.70617
G1 X169.695 Y77.942 E3.78327
G1 X170.135 Y80.183 E3.85923
G1 X170.3 Y82.486 E3.93603
G1 X170.3 Y107.223 E4.75878
G1 X172.058 Y107.892 E4.82135
G1 X174.199 Y109.363 E4.90774
G1 X175.9 Y111.292 E4.99328
G1 X177.132 Y113.599 E5.08027
G1 X177.778 Y116.219 E5.17002
G1 X177.778 Y118.781 E5.25523
G1 X177.131 Y121.403 E5.34506
G1 X175.909 Y123.692 E5.43136
G1 X174.188 Y125.645 E5.51794
G1 X172.062 Y127.106 E5.60374
G1 X170.3 Y127.777 E5.66645
G1 X170.281 Y153.033 E6.50647
G1 X170.194 Y154.337 E6.54993
G1 X169.553 Y157.583 E6.65998
G1 X169.097 Y158.919 E6.70693
G1 X167.649 Y161.837 E6.81528
G1 X166.83 Y163.052 E6.86401
G1 X164.89 Y165.265 E6.9619
G1 X163.283 Y166.655 E7.03257
G1 X161.655 Y167.754 E7.0979
G1 X159.252 Y168.956 E7.18726
G1 X157.058 Y169.695 E7.26426
G1 X154.817 Y170.135 E7.34022
G1 X152.513 Y170.3 E7.41705
G1 X127.78 Y170.3 E8.23967
G1 X127.109 Y172.06 E8.30232
G1 X125.648 Y174.186 E8.38812
G1 X123.693 Y175.909 E8.47479
G1 X121.401 Y177.132 E8.5612
G1 X118.78 Y177.778 E8.65098
G1 X116.22 Y177.778 E8.73613
G1 X113.597 Y177.131 E8.82598
G1 X111.308 Y175.909 E8.91229
G1 X109.354 Y174.187 E8.99891
G1 X107.893 Y172.061 E9.08471
G1 X107.222 Y170.3 E9.14739
G1 X81.967 Y170.281 E9.98737
G1 X80.663 Y170.194 E10.03084
G1 X77.417 Y169.553 E10.14089
G1 X76.081 Y169.097 E10.18784
G1 X73.163 Y167.649 E10.29619
G1 X71.948 Y166.83 E10.34492
G1 X69.733 Y164.888 E10.4429
G1 X68.345 Y163.283 E10.51347
G1 X67.245 Y161.653 E10.57888
G1 X66.044 Y159.252 E10.66817
G1 X65.305 Y157.058 E10.74517
G1 X64.865 Y154.817 E10.82113
G1 X64.7 Y152.514 E10.89792
G1 X64.7 Y127.777 E11.72068
G1 X62.938 Y127.106 E11.78339
G1 X60.812 Y125.645 E11.86919
G1 X59.091 Y123.692 E11.95577
G1 X57.869 Y121.403 E12.04207
G1 X57.222 Y118.781 E12.13189
G1 X57.222 Y116.219 E12.21711
G1 X57.868 Y113.599 E12.30686
G1 X59.1 Y111.292 E12.39384
G1 X60.801 Y109.363 E12.47938
G1 X62.942 Y107.892 E12.56578
G1 X64.7 Y107.223 E12.62834
G1 X64.719 Y81.967 E13.46836
G1 X64.806 Y80.663 E13.51183
G1 X65.447 Y77.417 E13.62188
G1 X65.903 Y76.081 E13.66883
G1 X67.351 Y73.163 E13.77717
G1 X68.17 Y71.948 E13.82591
G1 X70.11 Y69.735 E13.92379
G0 F6000 X70.372 Y70.038
G1 F1200 X71.979 Y68.648 E13.99446
G1 X73.524 Y67.604 E14.05648
G1 X75.927 Y66.402 E14.14585
G1 X78.019 Y65.698 E14.21926
G1 X80.26 Y65.258 E14.29522
G1 X82.487 Y65.1 E14.36948
G1 X107.496 Y65.1 E15.20128
G1 X108.248 Y63.128 E15.27147
G1 X109.656 Y61.079 E15.35416
G1 X111.535 Y59.423 E15.43747
G1 X113.744 Y58.244 E15.52075
G1 X116.267 Y57.622 E15.60718
G1 X118.733 Y57.622 E15.6892
G1 X121.258 Y58.245 E15.7757
G1 X123.464 Y59.423 E15.85887
G1 X125.342 Y61.078 E15.94213
G1 X126.751 Y63.128 E16.02487
G1 X127.502 Y65.1 E16.09505
G1 X153.006 Y65.118 E16.94332
G1 X154.31 Y65.205 E16.98678
G1 X157.454 Y65.826 E17.09337
G1 X158.79 Y66.282 E17.14033
G1 X161.613 Y67.683 E17.24515
G1 X162.828 Y68.502 E17.29388
G1 X164.962 Y70.372 E17.38825
G1 X166.352 Y71.979 E17.45892
G1 X167.396 Y73.524 E17.52094
G1 X168.597 Y75.924 E17.6102
G1 X169.302 Y78.019 E17.68372
G1 X169.742 Y80.26 E17.75968
G1 X169.9 Y82.486 E17.83391
G1 X169.9 Y107.499 E18.66584
G1 X171.871 Y108.249 E18.73598
G1 X173.931 Y109.664 E18.81911
G1 X175.57 Y111.523 E18.90154
G1 X176.756 Y113.744 E18.98528
G1 X177.378 Y116.266 E19.07167
G1 X177.378 Y118.734 E19.15376
G1 X176.755 Y121.258 E19.24023
G1 X175.577 Y123.464 E19.32341
G1 X173.923 Y125.341 E19.40661
G1 X171.873 Y126.75 E19.48935
G1 X169.9 Y127.501 E19.55957
G1 X169.882 Y153.006 E20.40787
G1 X169.795 Y154.31 E20.45133
G1 X169.174 Y157.454 E20.55792
G1 X168.718 Y158.79 E20.60488
G1 X167.317 Y161.613 E20.7097
G1 X166.498 Y162.828 E20.75843
G1 X164.628 Y164.962 E20.8528
G1 X163.021 Y166.352 E20.92347
G1 X161.476 Y167.396 E20.98549
G1 X159.073 Y168.598 E21.07486
G1 X156.981 Y169.302 E21.14827
G1 X154.74 Y169.742 E21.22423
G1 X152.513 Y169.9 E21.29849
G1 X127.504 Y169.9 E22.13029
G1 X126.752 Y171.872 E22.20049
G1 X125.344 Y173.921 E22.28317
G1 X123.465 Y175.577 E22.36648
G1 X121.256 Y176.756 E22.44976
G1 X118.733 Y177.378 E22.53619
G1 X116.267 Y177.378 E22.61821
G1 X113.742 Y176.755 E22.70471
G1 X111.536 Y175.577 E22.78788
G1 X109.658 Y173.922 E22.87114
G1 X108.249 Y171.872 E22.95388
G1 X107.498 Y169.9 E23.02406
G1 X81.994 Y169.882 E23.87233
G1 X80.69 Y169.795 E23.91579
G1 X77.546 Y169.174 E24.02239
G1 X76.21 Y168.718 E24.06934
G1 X73.387 Y167.317 E24.17416
G1 X72.172 Y166.498 E24.22289
G1 X70.036 Y164.626 E24.31736
G1 X68.648 Y163.021 E24.38793
G1 X67.603 Y161.474 E24.45003
G1 X66.402 Y159.073 E24.53932
G1 X65.698 Y156.981 E24.61273
G1 X65.258 Y154.74 E24.68869
G1 X65.1 Y152.514 E24.76291
G1 X65.1 Y127.501 E25.59485
G1 X63.127 Y126.75 E25.66507
G1 X61.077 Y125.341 E25.7478
G1 X59.423 Y123.464 E25.83101
G1 X58.245 Y121.258 E25.91419
G1 X57.622 Y118.734 E26.00066
G1 X57.622 Y116.266 E26.08274
G1 X58.244 Y113.744 E26.16914
G1 X59.43 Y111.523 E26.25288
G1 X61.069 Y109.664 E26.33531
G1 X63.129 Y108.249 E26.41843
G1 X65.1 Y107.499 E26.48858
G1 X65.118 Y81.994 E27.33688
G1 X65.205 Y80.69 E27.38034
G1 X65.826 Y77.546 E27.48693
G1 X66.282 Y76.21 E27.53389
G1 X67.683 Y73.387 E27.63871
G1 X68.502 Y72.172 E27.68744
G1 X70.372 Y70.038 E27.78181
G0 F6000 X70.634 Y70.341
G1 F1200 X72.241 Y68.951 E27.85248
G1 X73.703 Y67.962 E27.91119
G1 X76.106 Y66.76 E28.00055
G1 X78.096 Y66.091 E28.07038
G1 X80.337 Y65.651 E28.14634
G1 X82.487 Y65.5 E28.21803
G1 X107.772 Y65.5 E29.05901
G1 X108.604 Y63.317 E29.13671
G1 X109.96 Y61.344 E29.21634
G1 X111.763 Y59.755 E29.29627
G1 X113.889 Y58.62 E29.37643
G1 X116.314 Y58.022 E29.4595
G1 X118.686 Y58.022 E29.53839
G1 X121.113 Y58.621 E29.62154
G1 X123.236 Y59.755 E29.70159
G1 X125.04 Y61.344 E29.78155
G1 X126.394 Y63.315 E29.86108
G1 X127.226 Y65.5 E29.93885
G1 X152.979 Y65.517 E30.79539
G1 X154.283 Y65.604 E30.83886
G1 X157.325 Y66.205 E30.942
G1 X158.661 Y66.661 E30.98895
G1 X161.389 Y68.015 E31.09024
G1 X162.604 Y68.834 E31.13898
G1 X164.659 Y70.634 E31.22984
G1 X166.049 Y72.241 E31.30051
G1 X167.038 Y73.703 E31.35922
G1 X168.239 Y76.103 E31.44848
G1 X168.909 Y78.096 E31.51841
G1 X169.349 Y80.337 E31.59437
G1 X169.5 Y82.486 E31.66602
G1 X169.5 Y107.775 E32.50714
G1 X171.682 Y108.605 E32.58478
G1 X173.664 Y109.967 E32.66477
G1 X175.24 Y111.754 E32.74402
G1 X176.38 Y113.889 E32.82452
G1 X176.978 Y116.313 E32.90756
G1 X176.978 Y118.687 E32.98652
G1 X176.379 Y121.113 E33.06963
G1 X175.245 Y123.236 E33.14968
G1 X173.657 Y125.039 E33.22959
G1 X171.686 Y126.393 E33.30913
G1 X169.5 Y127.225 E33.38692
G1 X169.483 Y152.979 E34.2435
G1 X169.396 Y154.283 E34.28697
G1 X168.795 Y157.325 E34.3901
G1 X168.339 Y158.661 E34.43706
G1 X166.985 Y161.389 E34.53835
G1 X166.166 Y162.604 E34.58709
G1 X164.366 Y164.659 E34.67795
G1 X162.759 Y166.049 E34.74862
G1 X161.297 Y167.038 E34.80733
G1 X158.894 Y168.24 E34.89669
G1 X156.904 Y168.909 E34.96652
G1 X154.663 Y169.349 E35.04248
G1 X152.513 Y169.5 E35.11416
G1 X127.228 Y169.5 E35.95515
G1 X126.396 Y171.683 E36.03285
G1 X125.04 Y173.656 E36.11247
G1 X123.237 Y175.245 E36.19241
G1 X121.111 Y176.38 E36.27256
G1 X118.686 Y176.978 E36.35564
G1 X116.314 Y176.978 E36.43453
G1 X113.887 Y176.379 E36.51767
G1 X111.764 Y175.245 E36.59773
G1 X109.96 Y173.656 E36.67768
G1 X108.606 Y171.685 E36.75722
G1 X107.774 Y169.5 E36.83498
G1 X82.021 Y169.483 E37.69153
G1 X80.717 Y169.396 E37.735
G1 X77.675 Y168.795 E37.83813
G1 X76.339 Y168.339 E37.88508
G1 X73.611 Y166.985 E37.98638
G1 X72.396 Y166.166 E38.03511
G1 X70.339 Y164.364 E38.12607
G1 X68.951 Y162.759 E38.19664
G1 X67.961 Y161.295 E38.25543
G1 X66.76 Y158.894 E38.34472
G1 X66.091 Y156.904 E38.41454
G1 X65.651 Y154.663 E38.4905
G1 X65.5 Y152.514 E38.56216
G1 X65.5 Y127.225 E39.40327
G1 X63.314 Y126.393 E39.48107
G1 X61.343 Y125.039 E39.5606
G1 X59.755 Y123.236 E39.64051
G1 X58.621 Y121.113 E39.72056
G1 X58.022 Y118.687 E39.80368
G1 X58.022 Y116.313 E39.88264
G1 X58.62 Y113.889 E39.96568
G1 X59.76 Y111.754 E40.04618
G1 X61.336 Y109.967 E40.12542
G1 X63.318 Y108.605 E40.20541
G1 X65.5 Y107.775 E40.28306
G1 X65.517 Y82.021 E41.13964
G1 X65.604 Y80.717 E41.18311
G1 X66.205 Y77.675 E41.28624
G1 X66.661 Y76.339 E41.33319
G1 X68.015 Y73.611 E41.43449
G1 X68.834 Y72.396 E41.48322
G1 X70.634 Y70.341 E41.57408
G0 F6000 X70.896 Y70.644
G1 F1200 X72.503 Y69.254 E41.64475
G1 X73.882 Y68.32 E41.70015
G1 X76.285 Y67.118 E41.78951
G1 X78.173 Y66.484 E41.85575
G1 X80.414 Y66.044 E41.93171
G1 X82.487 Y65.9 E42.00083
G1 X108.095 Y65.9 E42.85255
G1 X108.132 Y65.679 E42.86001
G1 X108.961 Y63.504 E42.93742
G1 X110.262 Y61.61 E43.01385
G1 X111.991 Y60.087 E43.09048
G1 X114.034 Y58.996 E43.16752
G1 X116.361 Y58.422 E43.24723
G1 X118.639 Y58.422 E43.323
G1 X120.966 Y58.996 E43.40271
G1 X123.009 Y60.088 E43.47976
G1 X124.736 Y61.609 E43.5563
G1 X126.038 Y63.504 E43.63278
G1 X126.869 Y65.686 E43.71043
G1 X126.906 Y65.9 E43.71766
G1 X152.952 Y65.916 E44.58395
G1 X154.256 Y66.003 E44.62742
G1 X157.196 Y66.584 E44.72709
G1 X158.532 Y67.04 E44.77405
G1 X161.165 Y68.347 E44.87182
G1 X162.38 Y69.166 E44.92055
G1 X164.356 Y70.896 E45.0079
G1 X165.746 Y72.503 E45.07857
G1 X166.68 Y73.882 E45.13397
G1 X167.881 Y76.282 E45.22323
G1 X168.516 Y78.173 E45.28958
G1 X168.956 Y80.414 E45.36553
G1 X169.1 Y82.486 E45.43462
G1 X169.1 Y108.097 E46.28644
G1 X169.318 Y108.134 E46.2938
G1 X171.495 Y108.962 E46.37126
G1 X173.398 Y110.269 E46.44805
G1 X174.907 Y111.981 E46.52395
G1 X176.005 Y114.036 E46.60145
G1 X176.578 Y116.36 E46.68106
G1 X176.578 Y118.64 E46.75689
G1 X176.004 Y120.966 E46.83657
G1 X174.912 Y123.009 E46.91362
G1 X173.392 Y124.735 E46.99012
G1 X171.497 Y126.037 E47.06659
G1 X169.318 Y126.866 E47.14413
G1 X169.1 Y126.903 E47.15148
G1 X169.084 Y152.952 E48.01788
G1 X168.997 Y154.256 E48.06134
G1 X168.416 Y157.196 E48.16102
G1 X167.96 Y158.532 E48.20797
G1 X166.653 Y161.165 E48.30574
G1 X165.834 Y162.38 E48.35448
G1 X164.104 Y164.356 E48.44183
G1 X162.497 Y165.746 E48.5125
G1 X161.118 Y166.68 E48.56789
G1 X158.715 Y167.882 E48.65726
G1 X156.827 Y168.516 E48.7235
G1 X154.586 Y168.956 E48.79946
G1 X152.513 Y169.1 E48.86857
G1 X126.905 Y169.1 E49.7203
G1 X126.868 Y169.321 E49.72775
G1 X126.039 Y171.496 E49.80517
G1 X124.738 Y173.39 E49.88159
G1 X123.009 Y174.913 E49.95823
G1 X120.966 Y176.004 E50.03526
G1 X118.639 Y176.578 E50.11498
G1 X116.361 Y176.578 E50.19074
G1 X114.034 Y176.004 E50.27046
G1 X111.991 Y174.912 E50.34751
G1 X110.264 Y173.391 E50.42405
G1 X108.962 Y171.496 E50.50052
G1 X108.131 Y169.314 E50.57818
G1 X108.094 Y169.1 E50.5854
G1 X82.048 Y169.084 E51.4517
G1 X80.744 Y168.997 E51.49516
G1 X77.804 Y168.416 E51.59484
G1 X76.468 Y167.96 E51.64179
G1 X73.835 Y166.653 E51.73956
G1 X72.62 Y165.834 E51.7883
G1 X70.642 Y164.102 E51.87574
G1 X69.254 Y162.497 E51.94632
G1 X68.319 Y161.116 E52.00179
G1 X67.118 Y158.715 E52.09108
G1 X66.484 Y156.827 E52.15732
G1 X66.044 Y154.586 E52.23328
G1 X65.9 Y152.514 E52.30236
G1 X65.9 Y126.903 E53.15419
G1 X65.682 Y126.866 E53.16154
G1 X63.503 Y126.037 E53.23908
G1 X61.608 Y124.735 E53.31555
G1 X60.088 Y123.009 E53.39205
G1 X58.996 Y120.966 E53.4691
G1 X58.422 Y118.64 E53.54878
G1 X58.422 Y116.36 E53.62461
G1 X58.995 Y114.036 E53.70422
G1 X60.093 Y111.981 E53.78172
G1 X61.602 Y110.269 E53.85762
G1 X63.505 Y108.962 E53.93441
G1 X65.682 Y108.134 E54.01187
G1 X65.9 Y108.097 E54.01923
G1 X65.916 Y82.048 E54.88562
G1 X66.003 Y80.744 E54.92909
G1 X66.584 Y77.804 E55.02876
G1 X67.04 Y76.468 E55.07572
G1 X68.347 Y73.835 E55.17349
G1 X69.166 Y72.62 E55.22222
G1 X70.896 Y70.644 E55.30957
G0 F6000 X71.158 Y70.947
G1 F1200 X72.765 Y69.557 E55.38024
G1 X74.106 Y68.652 E55.43405
G1 X76.464 Y67.476 E55.52169
G1 X78.25 Y66.877 E55.58435
G1 X80.491 Y66.437 E55.6603
G1 X82.487 Y66.3 E55.72685
G1 X108.454 Y66.3 E56.59051
G1 X108.506 Y65.821 E56.60654
G1 X109.317 Y63.693 E56.68228
G1 X110.566 Y61.875 E56.75564
G1 X112.219 Y60.419 E56.82891
G1 X114.179 Y59.372 E56.90282
G1 X116.408 Y58.822 E56.97918
G1 X118.592 Y58.822 E57.05182
G1 X120.821 Y59.372 E57.12818
G1 X122.781 Y60.419 E57.20209
G1 X124.432 Y61.874 E57.27528
G1 X125.682 Y63.693 E57.34869
G1 X126.495 Y65.828 E57.42467
G1 X126.547 Y66.3 E57.44047
G1 X152.925 Y66.315 E58.3178
G1 X154.229 Y66.402 E58.36127
G1 X157.067 Y66.963 E58.45749
G1 X158.403 Y67.419 E58.50444
G1 X160.941 Y68.679 E58.59869
G1 X162.156 Y69.498 E58.64742
G1 X164.053 Y71.158 E58.73126
G1 X165.443 Y72.765 E58.80193
G1 X166.348 Y74.106 E58.85574
G1 X167.523 Y76.461 E58.94328
G1 X168.123 Y78.25 E59.00603
G1 X168.563 Y80.491 E59.08199
G1 X168.7 Y82.486 E59.1485
G1 X168.7 Y108.456 E60.01227
G1 X169.176 Y108.508 E60.0282
G1 X171.306 Y109.318 E60.10399
G1 X173.131 Y110.572 E60.17764
G1 X174.577 Y112.212 E60.25036
G1 X175.629 Y114.181 E60.32461
G1 X176.178 Y116.407 E60.40086
G1 X176.178 Y118.593 E60.47357
G1 X175.628 Y120.821 E60.5499
G1 X174.581 Y122.781 E60.62381
G1 X173.127 Y124.431 E60.69695
G1 X171.308 Y125.681 E60.77036
G1 X169.176 Y126.492 E60.84623
G1 X168.7 Y126.544 E60.86216
G1 X168.685 Y152.925 E61.73959
G1 X168.598 Y154.229 E61.78306
G1 X168.037 Y157.067 E61.87928
G1 X167.581 Y158.403 E61.92623
G1 X166.321 Y160.941 E62.02048
G1 X165.502 Y162.156 E62.06921
G1 X163.842 Y164.053 E62.15305
G1 X162.235 Y165.443 E62.22372
G1 X160.894 Y166.348 E62.27753
G1 X158.536 Y167.524 E62.36517
G1 X156.75 Y168.123 E62.42782
G1 X154.509 Y168.563 E62.50378
G1 X152.513 Y168.7 E62.57033
G1 X126.546 Y168.7 E63.43399
G1 X126.494 Y169.179 E63.45002
G1 X125.683 Y171.307 E63.52576
G1 X124.434 Y173.125 E63.59912
G1 X122.781 Y174.581 E63.67239
G1 X120.821 Y175.628 E63.7463
G1 X118.592 Y176.178 E63.82266
G1 X116.408 Y176.178 E63.8953
G1 X114.179 Y175.628 E63.97166
G1 X112.219 Y174.581 E64.04556
G1 X110.568 Y173.126 E64.11876
G1 X109.318 Y171.307 E64.19217
G1 X108.505 Y169.172 E64.26815
G1 X108.453 Y168.7 E64.28394
G1 X82.075 Y168.685 E65.16128
G1 X80.771 Y168.598 E65.20475
G1 X77.933 Y168.037 E65.30097
G1 X76.597 Y167.581 E65.34792
G1 X74.059 Y166.321 E65.44216
G1 X72.844 Y165.502 E65.4909
G1 X70.945 Y163.84 E65.57483
G1 X69.557 Y162.235 E65.64541
G1 X68.651 Y160.892 E65.69929
G1 X67.476 Y158.536 E65.78686
G1 X66.877 Y156.75 E65.84951
G1 X66.437 Y154.509 E65.92547
G1 X66.3 Y152.514 E65.99198
G1 X66.3 Y126.544 E66.85575
G1 X65.824 Y126.492 E66.87167
G1 X63.692 Y125.681 E66.94754
G1 X61.873 Y124.431 E67.02095
G1 X60.419 Y122.781 E67.09409
G1 X59.372 Y120.821 E67.168
G1 X58.822 Y118.593 E67.24433
G1 X58.822 Y116.407 E67.31704
G1 X59.371 Y114.181 E67.39329
G1 X60.423 Y112.212 E67.46754
