;FLAVOR:Marlin
;TIME:5598
;Filament used: 4.09351m
;Layer height: 0.2
;MINX:68.511
;MINY:68.507
;MINZ:0.2
;MAXX:166.488
;MAXY:166.493
;MAXZ:7
;Generated with Cura_SteamEngine 5.3.1
M140 S50
M105
M190 S50
M104 S200
M105
M109 S200
M82 ;absolute extrusion mode
; Ender 3 Custom Start G-code
G92 E0 ; Reset Extruder
G28 ; Home all axes
G1 Z2.0 F3000 ; Move Z Axis up little to prevent scratching of Heat Bed
G1 X0.1 Y20 Z0.3 F5000.0 ; Move to start position
G1 X0.1 Y200.0 Z0.3 F1500.0 E15 ; Draw the first line
G1 X0.4 Y200.0 Z0.3 F5000.0 ; Move to side a little
G1 X0.4 Y20 Z0.3 F1500.0 E30 ; Draw the second line
G92 E0 ; Reset Extruder
G1 Z2.0 F3000 ; Move Z Axis up little to prevent scratching of Heat Bed
G1 X5 Y20 Z0.3 F5000.0 ; Move over to prevent blob squish
G92 E0
G92 E0
G1 F2700 E-5
;LAYER_COUNT:35
;LAYER:0
M107
G0 F6000 X83.741 Y81.982 Z0.2
;TYPE:SKIRT
G1 F2700 E0
G1 F1200 X85.983 Y79.98 E0.09997
G1 X88.308 Y78.144 E0.19851
G1 X90.706 Y76.473 E0.29572
G1 X93.099 Y75.004 E0.38911
G1 X95.576 Y73.676 E0.48259
G1 X98.033 Y72.536 E0.57268
G1 X101.192 Y71.293 E0.68559
G1 X103.663 Y70.492 E0.77198
G1 X106.773 Y69.684 E0.87886
G1 X109.395 Y69.172 E0.96771
G1 X112.521 Y68.756 E1.0726
G1 X115.535 Y68.544 E1.17309
G1 X118.406 Y68.507 E1.26859
G1 X121.387 Y68.657 E1.36786
G1 X124.067 Y68.943 E1.45751
G1 X127.139 Y69.458 E1.56111
G1 X130.054 Y70.139 E1.66067
G1 X132.72 Y70.926 E1.75313
G1 X135.394 Y71.889 E1.84766
G1 X138.287 Y73.133 E1.9524
G1 X140.556 Y74.269 E2.03679
G1 X143.454 Y75.941 E2.14807
G1 X145.563 Y77.335 E2.23216
G1 X148.131 Y79.266 E2.33902
G1 X150.439 Y81.232 E2.43986
G1 X152.452 Y83.165 E2.53268
G1 X154.36 Y85.226 E2.6261
G1 X156.384 Y87.696 E2.73231
G1 X157.981 Y89.904 E2.82294
G1 X159.648 Y92.529 E2.92637
G1 X160.897 Y94.773 E3.01179
G1 X162.295 Y97.681 E3.1191
G1 X163.452 Y100.521 E3.2211
G1 X164.385 Y103.289 E3.31825
G1 X165.043 Y105.676 E3.40061
G1 X165.748 Y108.992 E3.51336
G1 X166.116 Y111.442 E3.59576
G1 X166.414 Y114.82 E3.70855
G1 X166.488 Y117.733 E3.80547
G1 X166.413 Y120.209 E3.88786
G1 X166.115 Y123.588 E4.00068
G1 X165.746 Y126.038 E4.08309
G1 X165.041 Y129.354 E4.19584
G1 X164.381 Y131.741 E4.27822
G1 X163.276 Y134.951 E4.39113
G1 X162.285 Y137.354 E4.47758
G1 X160.863 Y140.29 E4.58609
G1 X159.561 Y142.613 E4.67466
G1 X157.94 Y145.149 E4.77476
G1 X156.215 Y147.521 E4.87231
G1 X154.251 Y149.889 E4.97464
G1 X152.231 Y152.045 E5.0729
G1 X150.087 Y154.077 E5.17115
G1 X147.878 Y155.933 E5.26711
G1 X145.515 Y157.687 E5.36499
G1 X143.047 Y159.307 E5.46318
G1 X140.796 Y160.605 E5.54961
G1 X137.868 Y162.057 E5.65831
G1 X135.186 Y163.197 E5.75524
G1 X132.841 Y164.036 E5.83807
G1 X129.578 Y164.978 E5.95103
G1 X126.71 Y165.623 E6.04881
G1 X123.823 Y166.086 E6.14605
G1 X120.919 Y166.382 E6.24314
G1 X118.445 Y166.493 E6.32551
G1 X115.057 Y166.436 E6.43821
G1 X112.588 Y166.251 E6.52056
G1 X109.241 Y165.804 E6.63287
G1 X106.81 Y165.327 E6.71527
G1 X103.579 Y164.476 E6.8264
G1 X100.729 Y163.537 E6.9262
G1 X98.008 Y162.459 E7.02355
G1 X95.651 Y161.364 E7.10999
G1 X92.987 Y159.927 E7.21066
G1 X90.481 Y158.376 E7.30868
G1 X87.905 Y156.567 E7.41338
G1 X85.949 Y155.006 E7.49661
G1 X83.589 Y152.876 E7.60235
G1 X81.434 Y150.684 E7.70459
G1 X79.594 Y148.568 E7.79785
G1 X77.939 Y146.426 E7.88788
G1 X76.066 Y143.677 E7.99852
G1 X74.724 Y141.42 E8.08586
G1 X73.252 Y138.561 E8.19281
G1 X72.058 Y135.854 E8.29121
G1 X71.188 Y133.533 E8.37366
G1 X70.192 Y130.292 E8.48643
G1 X69.51 Y127.45 E8.58364
G1 X69.068 Y125.012 E8.66605
G1 X68.678 Y121.65 E8.77862
G1 X68.511 Y118.722 E8.87616
G1 X68.53 Y115.786 E8.97381
G1 X68.717 Y112.871 E9.07097
G1 X69.043 Y110.175 E9.16129
G1 X69.607 Y107.083 E9.26583
G1 X70.195 Y104.677 E9.34821
G1 X71.192 Y101.456 E9.46035
G1 X72.062 Y99.135 E9.54279
G1 X73.41 Y96.108 E9.653
G1 X74.771 Y93.504 E9.75073
G1 X76.337 Y90.909 E9.85154
G1 X77.957 Y88.554 E9.94661
G1 X79.754 Y86.25 E10.04379
G1 X81.607 Y84.135 E10.13732
G1 X83.741 Y81.982 E10.23814
G0 F6000 X84.007 Y82.28
G1 F1200 X86.231 Y80.294 E10.33731
G1 X88.537 Y78.472 E10.43506
G1 X90.915 Y76.814 E10.53148
G1 X93.288 Y75.357 E10.6241
G1 X95.765 Y74.029 E10.71757
G1 X98.201 Y72.899 E10.80689
G1 X101.315 Y71.674 E10.91819
G1 X103.786 Y70.873 E11.00458
G1 X106.85 Y70.077 E11.10987
G1 X109.448 Y69.569 E11.19792
G1 X112.574 Y69.153 E11.30281
G1 X115.54 Y68.944 E11.4017
G1 X118.386 Y68.907 E11.49637
G1 X121.345 Y69.055 E11.59491
G1 X124.025 Y69.341 E11.68455
G1 X127.048 Y69.848 E11.7865
G1 X129.941 Y70.523 E11.88531
G1 X132.607 Y71.31 E11.97776
G1 X135.236 Y72.257 E12.0707
G1 X138.108 Y73.491 E12.17467
G1 X140.377 Y74.627 E12.25907
G1 X143.233 Y76.275 E12.36874
G1 X145.342 Y77.669 E12.45282
G1 X147.872 Y79.571 E12.5581
G1 X150.18 Y81.537 E12.65894
G1 X152.158 Y83.437 E12.75016
G1 X154.066 Y85.498 E12.84357
G1 X156.075 Y87.95 E12.94901
G1 X157.643 Y90.118 E13.038
G1 X159.298 Y92.724 E13.14067
G1 X160.547 Y94.968 E13.22609
G1 X161.934 Y97.854 E13.33259
G1 X163.073 Y100.649 E13.43298
G1 X163.999 Y103.395 E13.52936
G1 X164.657 Y105.782 E13.61171
G1 X165.352 Y109.051 E13.72287
G1 X165.72 Y111.501 E13.80527
G1 X166.014 Y114.83 E13.91643
G1 X166.088 Y117.721 E14.01261
G1 X166.013 Y120.197 E14.095
G1 X165.719 Y123.528 E14.20622
G1 X165.35 Y125.978 E14.28863
G1 X164.655 Y129.247 E14.39979
G1 X163.995 Y131.634 E14.48216
G1 X162.906 Y134.798 E14.59345
G1 X161.915 Y137.201 E14.67991
G1 X160.514 Y140.094 E14.78682
G1 X159.212 Y142.417 E14.87539
G1 X157.616 Y144.914 E14.97395
G1 X155.891 Y147.286 E15.0715
G1 X153.959 Y149.616 E15.17218
G1 X151.956 Y151.755 E15.26964
G1 X149.83 Y153.771 E15.36709
G1 X147.64 Y155.612 E15.46225
G1 X145.295 Y157.353 E15.55939
G1 X142.847 Y158.96 E15.65678
G1 X140.596 Y160.258 E15.74321
G1 X137.712 Y161.689 E15.85029
G1 X135.051 Y162.82 E15.94646
G1 X132.706 Y163.659 E16.02929
G1 X129.49 Y164.588 E16.14063
G1 X126.647 Y165.228 E16.23756
G1 X123.782 Y165.688 E16.33407
G1 X120.901 Y165.982 E16.43039
G1 X118.427 Y166.093 E16.51276
G1 X115.087 Y166.037 E16.62386
G1 X112.618 Y165.852 E16.70621
G1 X109.318 Y165.411 E16.81694
G1 X106.887 Y164.934 E16.89934
G1 X103.704 Y164.096 E17.00882
G1 X100.876 Y163.165 E17.10784
G1 X98.177 Y162.096 E17.2044
G1 X95.82 Y161.001 E17.29084
G1 X93.198 Y159.587 E17.38992
G1 X90.692 Y158.036 E17.48794
G1 X88.155 Y156.254 E17.59106
G1 X86.199 Y154.693 E17.67429
G1 X83.857 Y152.579 E17.77923
G1 X81.736 Y150.422 E17.87984
G1 X79.911 Y148.323 E17.97235
G1 X78.256 Y146.181 E18.06238
G1 X76.41 Y143.472 E18.17142
G1 X75.08 Y141.237 E18.25792
G1 X73.608 Y138.378 E18.36487
G1 X72.433 Y135.714 E18.46171
G1 X71.563 Y133.393 E18.54416
G1 X70.581 Y130.199 E18.6553
G1 X69.904 Y127.379 E18.75176
G1 X69.462 Y124.941 E18.83417
G1 X69.077 Y121.627 E18.94513
G1 X68.911 Y118.724 E19.04184
G1 X68.929 Y115.812 E19.1387
G1 X69.114 Y112.919 E19.23512
G1 X69.44 Y110.223 E19.32544
G1 X69.996 Y107.178 E19.42839
G1 X70.584 Y104.772 E19.51077
G1 X71.567 Y101.596 E19.62135
G1 X72.437 Y99.275 E19.70379
G1 X73.765 Y96.293 E19.81236
G1 X75.126 Y93.689 E19.91009
G1 X76.667 Y91.136 E20.00927
G1 X78.287 Y88.781 E20.10434
G1 X80.055 Y86.514 E20.19996
G1 X81.908 Y84.399 E20.29348
G1 X84.007 Y82.28 E20.39269
G0 F6000 X84.273 Y82.578
G1 F1200 X86.479 Y80.608 E20.49106
G1 X88.766 Y78.8 E20.58802
G1 X91.124 Y77.155 E20.68365
G1 X93.477 Y75.71 E20.77549
G1 X95.954 Y74.382 E20.86897
G1 X98.369 Y73.262 E20.95751
G1 X101.438 Y72.055 E21.06719
G1 X103.909 Y71.254 E21.15359
G1 X106.927 Y70.47 E21.2573
G1 X109.501 Y69.966 E21.34454
G1 X112.627 Y69.55 E21.44943
G1 X115.545 Y69.344 E21.54672
G1 X118.391 Y69.307 E21.64139
G1 X121.303 Y69.453 E21.73836
G1 X123.983 Y69.739 E21.828
G1 X126.957 Y70.238 E21.9283
G1 X129.828 Y70.907 E22.02635
G1 X132.494 Y71.694 E22.11881
G1 X135.1 Y72.633 E22.21094
G1 X137.929 Y73.849 E22.31335
G1 X140.177 Y74.974 E22.39696
G1 X143.012 Y76.609 E22.50581
G1 X145.121 Y78.003 E22.5899
G1 X147.632 Y79.891 E22.69439
G1 X149.903 Y81.826 E22.79362
G1 X151.864 Y83.709 E22.88404
G1 X153.772 Y85.77 E22.97746
G1 X155.751 Y88.185 E23.08131
G1 X157.305 Y90.332 E23.16946
G1 X158.948 Y92.919 E23.27139
G1 X160.197 Y95.163 E23.35681
G1 X161.573 Y98.027 E23.46249
G1 X162.694 Y100.777 E23.56126
G1 X163.613 Y103.501 E23.65688
G1 X164.271 Y105.888 E23.73923
G1 X164.956 Y109.11 E23.84879
G1 X165.324 Y111.56 E23.93119
G1 X165.614 Y114.84 E24.04071
G1 X165.688 Y117.709 E24.13616
G1 X165.613 Y120.185 E24.21855
G1 X165.323 Y123.468 E24.32817
G1 X164.954 Y125.918 E24.41058
G1 X164.269 Y129.14 E24.52014
G1 X163.609 Y131.527 E24.60251
G1 X162.536 Y134.645 E24.71218
G1 X161.545 Y137.048 E24.79864
G1 X160.165 Y139.898 E24.90396
G1 X158.863 Y142.221 E24.99253
G1 X157.292 Y144.679 E25.08955
G1 X155.567 Y147.051 E25.1871
G1 X153.667 Y149.343 E25.28612
G1 X151.681 Y151.465 E25.38279
G1 X149.573 Y153.465 E25.47944
G1 X147.402 Y155.291 E25.57379
G1 X145.075 Y157.019 E25.67019
G1 X142.647 Y158.613 E25.76679
G1 X140.396 Y159.911 E25.85322
G1 X137.555 Y161.321 E25.95871
G1 X134.916 Y162.443 E26.05408
G1 X132.571 Y163.282 E26.13692
G1 X129.402 Y164.198 E26.24664
G1 X126.583 Y164.833 E26.34275
G1 X123.741 Y165.29 E26.43849
G1 X120.883 Y165.582 E26.53404
G1 X118.409 Y165.693 E26.61641
G1 X115.117 Y165.638 E26.72592
G1 X112.648 Y165.453 E26.80826
G1 X109.395 Y165.018 E26.91742
G1 X106.964 Y164.541 E26.99982
G1 X103.829 Y163.716 E27.10764
G1 X101.023 Y162.793 E27.20589
G1 X98.346 Y161.733 E27.30165
G1 X95.989 Y160.638 E27.38809
G1 X93.409 Y159.247 E27.48558
G1 X90.903 Y157.696 E27.5836
G1 X88.405 Y155.941 E27.68514
G1 X86.449 Y154.38 E27.76838
G1 X84.142 Y152.298 E27.87173
G1 X82.038 Y150.159 E27.97153
G1 X80.228 Y148.078 E28.06326
G1 X78.573 Y145.936 E28.15329
G1 X76.754 Y143.267 E28.26072
G1 X75.436 Y141.054 E28.34639
G1 X73.974 Y138.216 E28.45257
G1 X72.808 Y135.574 E28.54862
G1 X71.938 Y133.253 E28.63106
G1 X70.97 Y130.106 E28.74057
G1 X70.298 Y127.308 E28.83628
G1 X69.856 Y124.87 E28.91869
G1 X69.476 Y121.604 E29.02805
G1 X69.311 Y118.726 E29.12393
G1 X69.328 Y115.837 E29.22002
G1 X69.511 Y112.967 E29.31567
G1 X69.834 Y110.295 E29.40519
G1 X70.385 Y107.273 E29.50736
G1 X70.973 Y104.867 E29.58974
G1 X71.942 Y101.736 E29.69875
G1 X72.812 Y99.415 E29.78119
G1 X74.12 Y96.478 E29.88812
G1 X75.469 Y93.896 E29.98501
G1 X76.997 Y91.363 E30.0834
G1 X78.617 Y89.008 E30.17847
G1 X80.356 Y86.778 E30.27253
G1 X82.209 Y84.663 E30.36606
G1 X84.273 Y82.578 E30.46364
G0 F6000 X84.54 Y82.876
G1 F1200 X86.727 Y80.922 E30.56118
G1 X88.995 Y79.128 E30.65736
G1 X91.333 Y77.496 E30.75219
G1 X93.666 Y76.063 E30.84326
G1 X96.143 Y74.735 E30.93674
G1 X98.537 Y73.625 E31.0245
G1 X101.561 Y72.436 E31.13258
G1 X104.032 Y71.635 E31.21897
G1 X107.004 Y70.863 E31.3211
G1 X109.554 Y70.363 E31.40753
G1 X112.68 Y69.947 E31.51242
G1 X115.55 Y69.744 E31.60811
G1 X118.396 Y69.707 E31.70278
G1 X121.261 Y69.851 E31.79819
G1 X123.917 Y70.134 E31.88703
G1 X126.866 Y70.628 E31.98648
G1 X129.715 Y71.291 E32.08377
G1 X132.381 Y72.078 E32.17623
G1 X134.942 Y73 E32.26676
G1 X137.75 Y74.207 E32.36841
G1 X139.998 Y75.332 E32.45202
G1 X142.791 Y76.943 E32.55926
G1 X144.9 Y78.337 E32.64335
G1 X147.392 Y80.211 E32.74705
G1 X149.626 Y82.114 E32.84466
G1 X151.57 Y83.981 E32.93431
G1 X153.478 Y86.042 E33.02772
G1 X155.427 Y88.42 E33.12998
G1 X156.967 Y90.546 E33.2173
G1 X158.598 Y93.114 E33.31848
G1 X159.847 Y95.358 E33.4039
G1 X161.203 Y98.178 E33.50797
G1 X162.315 Y100.905 E33.60592
G1 X163.227 Y103.607 E33.70077
G1 X163.885 Y105.994 E33.78313
G1 X164.56 Y109.169 E33.89109
G1 X164.928 Y111.619 E33.97349
G1 X165.214 Y114.85 E34.08137
G1 X165.288 Y117.697 E34.1761
G1 X165.213 Y120.173 E34.25849
G1 X164.927 Y123.408 E34.3665
G1 X164.558 Y125.858 E34.44891
G1 X163.883 Y129.033 E34.55687
G1 X163.223 Y131.42 E34.63924
G1 X162.166 Y134.492 E34.74729
G1 X161.175 Y136.895 E34.83375
G1 X159.816 Y139.702 E34.93748
G1 X158.514 Y142.025 E35.02605
G1 X156.968 Y144.444 E35.12153
G1 X155.243 Y146.816 E35.21908
G1 X153.375 Y149.07 E35.31645
G1 X151.406 Y151.175 E35.41232
G1 X149.316 Y153.159 E35.50816
G1 X147.163 Y154.97 E35.60174
G1 X144.855 Y156.685 E35.69737
G1 X142.447 Y158.266 E35.79318
G1 X140.196 Y159.564 E35.87961
G1 X137.398 Y160.953 E35.9835
G1 X134.781 Y162.066 E36.07809
G1 X132.436 Y162.905 E36.16093
G1 X129.314 Y163.808 E36.26902
G1 X126.519 Y164.438 E36.36432
G1 X123.7 Y164.892 E36.45929
G1 X120.865 Y165.182 E36.55407
G1 X118.391 Y165.293 E36.63644
G1 X115.147 Y165.239 E36.74435
G1 X112.678 Y165.054 E36.8267
G1 X109.472 Y164.625 E36.93428
G1 X107.041 Y164.148 E37.01668
G1 X103.954 Y163.336 E37.12284
G1 X101.17 Y162.421 E37.22031
G1 X98.515 Y161.37 E37.31529
G1 X96.158 Y160.275 E37.40173
G1 X93.62 Y158.907 E37.49762
G1 X91.114 Y157.356 E37.59565
G1 X88.655 Y155.628 E37.69561
G1 X86.699 Y154.067 E37.77884
G1 X84.427 Y152.017 E37.88062
G1 X82.323 Y149.878 E37.98041
G1 X80.545 Y147.833 E38.07054
G1 X78.89 Y145.691 E38.16058
G1 X77.098 Y143.062 E38.2664
G1 X75.792 Y140.871 E38.35123
G1 X74.34 Y138.054 E38.45664
G1 X73.183 Y135.434 E38.5519
G1 X72.313 Y133.113 E38.63434
G1 X71.359 Y130.013 E38.74222
G1 X70.692 Y127.237 E38.83718
G1 X70.25 Y124.799 E38.91959
G1 X69.875 Y121.581 E39.02735
G1 X69.711 Y118.728 E39.12239
G1 X69.727 Y115.862 E39.21772
G1 X69.908 Y113.015 E39.3126
G1 X70.231 Y110.343 E39.40212
G1 X70.774 Y107.368 E39.5027
G1 X71.362 Y104.962 E39.58508
G1 X72.317 Y101.876 E39.69253
G1 X73.187 Y99.555 E39.77497
G1 X74.485 Y96.641 E39.88107
G1 X75.812 Y94.103 E39.97632
G1 X77.327 Y91.59 E40.07392
G1 X78.947 Y89.235 E40.16899
G1 X80.657 Y87.042 E40.26148
G1 X82.51 Y84.927 E40.35501
G1 X84.54 Y82.876 E40.45099
G0 F6000 X84.807 Y83.174
G1 F1200 X86.975 Y81.236 E40.54771
G1 X89.224 Y79.456 E40.6431
G1 X91.542 Y77.837 E40.73714
G1 X93.855 Y76.416 E40.82743
G1 X96.332 Y75.088 E40.92091
G1 X98.705 Y73.988 E41.0079
G1 X101.684 Y72.817 E41.11437
G1 X104.155 Y72.016 E41.20076
G1 X107.081 Y71.256 E41.30131
G1 X109.607 Y70.76 E41.38693
G1 X112.733 Y70.344 E41.49182
G1 X115.555 Y70.144 E41.58591
G1 X118.376 Y70.107 E41.67975
G1 X121.219 Y70.249 E41.77443
G1 X123.875 Y70.532 E41.86326
G1 X126.775 Y71.018 E41.96106
G1 X129.602 Y71.675 E42.0576
G1 X132.268 Y72.462 E42.15005
G1 X134.784 Y73.367 E42.23898
G1 X137.571 Y74.565 E42.33988
G1 X139.819 Y75.69 E42.42349
G1 X142.57 Y77.277 E42.52912
G1 X144.679 Y78.671 E42.6132
G1 X147.152 Y80.531 E42.71612
G1 X149.349 Y82.403 E42.81213
G1 X151.276 Y84.253 E42.90097
G1 X153.184 Y86.314 E42.99439
G1 X155.103 Y88.655 E43.09507
G1 X156.629 Y90.76 E43.18154
G1 X158.248 Y93.309 E43.28198
G1 X159.497 Y95.553 E43.36739
G1 X160.842 Y98.351 E43.47065
G1 X161.936 Y101.033 E43.56699
G1 X162.841 Y103.713 E43.66107
G1 X163.499 Y106.1 E43.74342
G1 X164.164 Y109.228 E43.84979
G1 X164.532 Y111.678 E43.93219
G1 X164.814 Y114.86 E44.03844
G1 X164.888 Y117.685 E44.13243
G1 X164.813 Y120.161 E44.21482
G1 X164.531 Y123.348 E44.32123
G1 X164.162 Y125.798 E44.40364
G1 X163.497 Y128.926 E44.51
G1 X162.837 Y131.313 E44.59237
G1 X161.796 Y134.339 E44.69881
G1 X160.805 Y136.742 E44.78526
G1 X159.467 Y139.506 E44.8874
G1 X158.165 Y141.829 E44.97597
G1 X156.644 Y144.209 E45.06991
G1 X154.919 Y146.581 E45.16746
G1 X153.083 Y148.797 E45.26318
G1 X151.131 Y150.885 E45.35825
G1 X149.058 Y152.853 E45.45332
G1 X146.924 Y154.649 E45.54608
G1 X144.616 Y156.364 E45.64172
G1 X142.247 Y157.919 E45.73597
G1 X139.996 Y159.217 E45.8224
G1 X137.241 Y160.585 E45.9247
G1 X134.646 Y161.689 E46.0185
G1 X132.301 Y162.528 E46.10134
G1 X129.226 Y163.418 E46.20781
G1 X126.455 Y164.043 E46.30229
G1 X123.659 Y164.494 E46.39648
G1 X120.847 Y164.782 E46.4905
G1 X118.373 Y164.893 E46.57287
G1 X115.177 Y164.84 E46.67918
G1 X112.708 Y164.655 E46.76153
G1 X109.549 Y164.232 E46.86754
G1 X107.118 Y163.755 E46.94994
G1 X104.079 Y162.956 E47.05445
G1 X101.317 Y162.049 E47.15114
G1 X98.684 Y161.007 E47.24532
G1 X96.327 Y159.912 E47.33176
G1 X93.831 Y158.567 E47.42607
G1 X91.325 Y157.016 E47.52409
G1 X88.905 Y155.315 E47.62247
G1 X86.949 Y153.754 E47.70571
G1 X84.695 Y151.72 E47.80669
G1 X82.625 Y149.615 E47.90488
G1 X80.862 Y147.588 E47.99423
G1 X79.207 Y145.446 E48.08426
G1 X77.442 Y142.857 E48.18848
G1 X76.148 Y140.688 E48.27248
